SiteWeb-L.Corentin-240314/assets/logo.svg

<?xml version="1.0" encoding="UTF-8"?><svg xmlns="http://www.w3.org/2000/svg" width="1000" height="1000" style="shape-rendering:geometricPrecision;text-rendering:geometricPrecision;image-rendering:optimizeQuality;fill-rule:evenodd;clip-rule:evenodd"><path style="opacity:1" fill="#010101" d="M310.5 80.5q188.5-.25 377 .5 50.815 5.273 80.5 46.5l187 324q22.898 48.468 0 97l-183 318q-29.615 46.049-84.5 51.5-189 1-378 0-49.529-6.13-78.5-46.5l-183-317q-30.216-54.321-1-109l185-320q29.54-39.396 78.5-45"/><path style="opacity:1" fill="#43c887" d="M311.5 126.5q187-.25 374 .5 34.912 4.835 50.5 36.5l174 302q19.893 32.41 2 66l-179 310q-7.836-18.831-24.5-30.5a331 331 0 0 0-15.5-7.5q-1-48 0-96 42.25-31.48 49-84 69.69-55.866 97-141Q885.235 311.7 716.5 260q-94.518-25.65-187 6-140.423 54.81-107 202.5a416.8 416.8 0 0 0-91-3.5 617 617 0 0 0-103 18 410 410 0 0 0-48 17 455 455 0 0 0-11.5 73.5 1210 1210 0 0 0-1 97 13478 13478 0 0 0-78-135q-19.892-30.67-5-64a77275 77275 0 0 1 187-323q16.319-17.526 39.5-22"/><path style="opacity:1" fill="#c65d4b" d="M604.5 274.5q80.785-6.872 153 29.5 84.892 51.54 62.5 149.5-18.277 81.322-79.5 137.5-48.186 43.37-108 69.5-39.579-17.9-74.5-43a914 914 0 0 0-7-85 289 289 0 0 0 29.5 38.5 121 121 0 0 0 13 7 674 674 0 0 0 72 1q15.208-2.227 25.5-13.5l49-67a63 63 0 0 0 7-17q.25-29.013 1.5-58 38.224-16.45 28.5-57-16.205-35.175-54.5-28.5-24.099 7.342-30 31.5h-119q-10.561-31.937-44.5-33-38.115 4.866-42.5 43 .219 32.198 30 44a1460 1460 0 0 1 1.5 54q1.253 7.205 3 14a562 562 0 0 0-70.5-19q-39.453-140.858 99-186.5 27.357-7.501 55-11.5"/><path style="opacity:1" fill="#f7dab0" d="M619.5 530.5v23h-17q-5.804-1.28-9.5-6a3750 3750 0 0 1-48-67 1353 1353 0 0 1-2-72l-3.5-5.5a68.2 68.2 0 0 0-15-4q-17.915-9.745-9.5-28.5 11.771-13.351 27.5-4.5 3.909 2.907 5.5 7.5a75.6 75.6 0 0 0 4 16q2.907 3.909 7.5 5.5 73.5 1 147 0 4.593-1.591 7.5-5.5-.043-14.646 10.5-24.5 19.266-8.08 28.5 10.5 1.919 25.089-23.5 25.5-4.25 2.25-6.5 6.5-.06 36.075-2 72a1659 1659 0 0 1-50.5 70.5q-3.939 3.219-9 4-7.984.749-16 .5-.25-12.01.5-24 12.77-4.282 19-16 .25-15.75-15.5-15.5a41 41 0 0 0-9 6q-6.361 2.186-13 1l-11-7q-21.144.508-13.5 20.5 6.873 7.562 16.5 11"/><path style="opacity:1" fill="#040303" d="M583.5 428.5q20.405-1.174 17.5 19-5.749 11.433-18.5 8.5-13.496-7.724-6.5-21.5 3.171-3.931 7.5-6"/><path style="opacity:1" fill="#050403" d="M673.5 428.5q24.223.452 15.5 23-6.935 6.782-16.5 4.5-12.961-7.878-6.5-21.5 3.171-3.931 7.5-6"/><path style="opacity:1" fill="#44c888" d="M362.5 488.5v383h11q-10.732 1.733-22 .5Q228.688 824.69 199 696.5q-11.385-60.558-6-122a506 506 0 0 1 8.5-57q77.993-28.249 161-29"/><path style="opacity:1" fill="#6ddd9b" d="M362.5 488.5q82.559.643 160 29 18.46 82.836 5.5 167-25.096 136.825-154.5 187h-11z"/><path style="opacity:1" fill="#8d7d65" d="M619.5 530.5q1.488 11.724 1 24-9.285.485-18-1h17z"/><path style="opacity:1" fill="#f6dab0" d="M627.5 856.5v3h-71q-14.79-2.025-20.5-16a632 632 0 0 1-1.5-49.5l.5-46.5a306 306 0 0 0 13-42 800 800 0 0 0 9.5-57 503 503 0 0 0 70 37.5q5 1 10 0 34.841-15.168 67-34-21.544 39.787-66 49a601 601 0 0 1-43 2q-6.168 2.668-9.5 8.5-1 54 0 108 1.633 5.529 6.5 8.5 21.58 1.153 32.5 19.5a23.9 23.9 0 0 1 2.5 9"/><path style="opacity:1" fill="#f7dab0" d="M706.5 855.5v4h-50q-3.392-40.297-41-55a1351 1351 0 0 1-1-73q25.581-.226 50-8-.25 47.502.5 95 1.446 5.952 6.5 9.5 20.094 1.177 31.5 17.5 3.052 4.592 3.5 10"/><path style="opacity:1" fill="#d2ba96" d="M614.5 731.5q-.485 36.612 1 73-1.998-17.721-2-36.5 0-18.507 1-36.5"/><path style="opacity:1" fill="#246c48" d="m506.5 840.5-2-37q.425-1.184 1.5-2 .75 19.494.5 39"/><path style="opacity:1" fill="#43c786" d="m504.5 803.5 2 37q2.45 16.889 13 30a961 961 0 0 1-62 1 332 332 0 0 0 1.5-21q26.129-20.286 45.5-47"/><path style="opacity:1" fill="#645847" d="M627.5 856.5q1.401 1.602 1 4-36.258.497-72-1h71z"/><path style="opacity:1" fill="#877760" d="M706.5 855.5q1.426 2.128 1 5a651 651 0 0 1-51-1h50z"/><path style="opacity:1" fill="#287851" d="M519.5 870.5q1.184.425 2 1.5a685 685 0 0 1-64-.5 961 961 0 0 0 62-1"/></svg>

<?xml version="1.0" encoding="UTF-8"?>
<!DOCTYPE svg PUBLIC "-//W3C//DTD SVG 1.1//EN" "http://www.w3.org/Graphics/SVG/1.1/DTD/svg11.dtd">
<svg xmlns="http://www.w3.org/2000/svg" version="1.1" width="1000px" height="1000px" style="shape-rendering:geometricPrecision; text-rendering:geometricPrecision; image-rendering:optimizeQuality; fill-rule:evenodd; clip-rule:evenodd" xmlns:xlink="http://www.w3.org/1999/xlink">
<g><path style="opacity:1" fill="#010101" d="M 310.5,80.5 C 436.167,80.3333 561.834,80.5 687.5,81C 721.377,84.5153 748.21,100.015 768,127.5C 830.333,235.5 892.667,343.5 955,451.5C 970.265,483.812 970.265,516.145 955,548.5C 894,654.5 833,760.5 772,866.5C 752.256,897.199 724.09,914.366 687.5,918C 561.5,918.667 435.5,918.667 309.5,918C 276.481,913.913 250.314,898.413 231,871.5C 170,765.833 109,660.167 48,554.5C 27.8559,518.286 27.5226,481.952 47,445.5C 108.667,338.833 170.333,232.167 232,125.5C 251.693,99.236 277.86,84.236 310.5,80.5 Z"/></g>
<g><path style="opacity:1" fill="#43c887" d="M 311.5,126.5 C 436.167,126.333 560.834,126.5 685.5,127C 708.775,130.223 725.608,142.39 736,163.5C 794,264.167 852,364.833 910,465.5C 923.262,487.107 923.929,509.107 912,531.5C 852.333,634.833 792.667,738.167 733,841.5C 727.776,828.946 719.61,818.779 708.5,811C 703.379,808.356 698.212,805.856 693,803.5C 692.333,771.5 692.333,739.5 693,707.5C 721.167,686.513 737.5,658.513 742,623.5C 788.46,586.256 820.793,539.256 839,482.5C 869.823,368.633 828.99,294.466 716.5,260C 653.488,242.9 591.155,244.9 529.5,266C 435.885,302.54 400.218,370.04 422.5,468.5C 392.296,464.009 361.962,462.843 331.5,465C 296.653,468.086 262.319,474.086 228.5,483C 212.133,487.678 196.133,493.344 180.5,500C 174.669,524.14 170.835,548.64 169,573.5C 167.37,605.825 167.037,638.159 168,670.5C 142.253,625.337 116.253,580.337 90,535.5C 76.7388,515.054 75.0721,493.72 85,471.5C 147.081,363.67 209.414,256.003 272,148.5C 282.879,136.816 296.046,129.483 311.5,126.5 Z"/></g>
<g><path style="opacity:1" fill="#c65d4b" d="M 604.5,274.5 C 658.357,269.919 709.357,279.752 757.5,304C 814.095,338.36 834.928,388.193 820,453.5C 807.815,507.715 781.315,553.548 740.5,591C 708.376,619.913 672.376,643.08 632.5,660.5C 606.114,648.567 581.281,634.233 558,617.5C 556.985,589.003 554.651,560.67 551,532.5C 559.743,546.144 569.576,558.977 580.5,571C 584.674,573.588 589.007,575.921 593.5,578C 617.458,579.616 641.458,579.95 665.5,579C 675.639,577.515 684.139,573.015 691,565.5C 707.333,543.167 723.667,520.833 740,498.5C 743.168,493.166 745.501,487.499 747,481.5C 747.167,462.158 747.667,442.825 748.5,423.5C 773.983,412.533 783.483,393.533 777,366.5C 766.197,343.05 748.03,333.55 722.5,338C 706.434,342.895 696.434,353.395 692.5,369.5C 652.833,369.5 613.167,369.5 573.5,369.5C 566.459,348.209 551.626,337.209 529,336.5C 503.59,339.744 489.423,354.077 486.5,379.5C 486.646,400.965 496.646,415.632 516.5,423.5C 517.333,441.491 517.833,459.491 518,477.5C 518.835,482.304 519.835,486.97 521,491.5C 497.93,483.644 474.43,477.311 450.5,472.5C 424.198,378.595 457.198,316.428 549.5,286C 567.738,280.999 586.071,277.166 604.5,274.5 Z"/></g>
<g><path style="opacity:1" fill="#f7dab0" d="M 619.5,530.5 C 619.5,538.167 619.5,545.833 619.5,553.5C 613.833,553.5 608.167,553.5 602.5,553.5C 598.63,552.647 595.464,550.647 593,547.5C 576.755,525.343 560.755,503.01 545,480.5C 543.696,456.563 543.029,432.563 543,408.5C 541.833,406.667 540.667,404.833 539.5,403C 534.676,401.102 529.676,399.769 524.5,399C 512.556,392.503 509.39,383.003 515,370.5C 522.848,361.599 532.014,360.099 542.5,366C 545.106,367.938 546.939,370.438 548,373.5C 548.756,379.007 550.09,384.34 552,389.5C 553.938,392.106 556.438,393.939 559.5,395C 608.5,395.667 657.5,395.667 706.5,395C 709.562,393.939 712.062,392.106 714,389.5C 713.971,379.736 717.471,371.569 724.5,365C 737.344,359.613 746.844,363.113 753,375.5C 754.279,392.226 746.446,400.726 729.5,401C 726.667,402.5 724.5,404.667 723,407.5C 722.96,431.55 722.294,455.55 721,479.5C 704.78,503.441 687.947,526.941 670.5,550C 667.874,552.146 664.874,553.479 661.5,554C 656.177,554.499 650.844,554.666 645.5,554.5C 645.334,546.493 645.5,538.493 646,530.5C 654.513,527.646 660.847,522.312 665,514.5C 665.167,504 660,498.833 649.5,499C 646.228,500.608 643.228,502.608 640.5,505C 636.259,506.457 631.926,506.791 627.5,506C 623.833,503.667 620.167,501.333 616.5,499C 602.404,499.338 597.904,506.172 603,519.5C 607.582,524.541 613.082,528.208 619.5,530.5 Z"/></g>
<g><path style="opacity:1" fill="#040303" d="M 583.5,428.5 C 597.103,427.717 602.937,434.051 601,447.5C 597.167,455.122 591.001,457.955 582.5,456C 573.503,450.851 571.336,443.684 576,434.5C 578.114,431.879 580.614,429.879 583.5,428.5 Z"/></g>
<g><path style="opacity:1" fill="#050403" d="M 673.5,428.5 C 689.649,428.801 694.815,436.468 689,451.5C 684.377,456.021 678.877,457.521 672.5,456C 663.859,450.748 661.693,443.581 666,434.5C 668.114,431.879 670.614,429.879 673.5,428.5 Z"/></g>
<g><path style="opacity:1" fill="#44c888" d="M 362.5,488.5 C 362.5,616.167 362.5,743.833 362.5,871.5C 366.167,871.5 369.833,871.5 373.5,871.5C 366.345,872.655 359.012,872.822 351.5,872C 269.625,840.46 218.792,781.96 199,696.5C 191.41,656.128 189.41,615.462 193,574.5C 194.753,555.318 197.586,536.318 201.5,517.5C 253.495,498.667 307.162,489.001 362.5,488.5 Z"/></g>
<g><path style="opacity:1" fill="#6ddd9b" d="M 362.5,488.5 C 417.539,488.929 470.873,498.595 522.5,517.5C 534.806,572.724 536.64,628.391 528,684.5C 511.269,775.717 459.769,838.05 373.5,871.5C 369.833,871.5 366.167,871.5 362.5,871.5C 362.5,743.833 362.5,616.167 362.5,488.5 Z"/></g>
<g><path style="opacity:1" fill="#8d7d65" d="M 619.5,530.5 C 620.492,538.316 620.826,546.316 620.5,554.5C 614.31,554.823 608.31,554.49 602.5,553.5C 608.167,553.5 613.833,553.5 619.5,553.5C 619.5,545.833 619.5,538.167 619.5,530.5 Z"/></g>
<g><path style="opacity:1" fill="#f6dab0" d="M 627.5,856.5 C 627.5,857.5 627.5,858.5 627.5,859.5C 603.833,859.5 580.167,859.5 556.5,859.5C 546.64,858.15 539.807,852.817 536,843.5C 534.855,827.064 534.355,810.564 534.5,794C 534.667,778.5 534.833,763 535,747.5C 540.34,733.814 544.673,719.814 548,705.5C 551.86,686.572 555.027,667.572 557.5,648.5C 579.783,662.811 603.117,675.311 627.5,686C 630.833,686.667 634.167,686.667 637.5,686C 660.727,675.888 683.061,664.555 704.5,652C 690.137,678.525 668.137,694.858 638.5,701C 624.198,702.18 609.865,702.847 595.5,703C 591.388,704.779 588.222,707.612 586,711.5C 585.333,747.5 585.333,783.5 586,819.5C 587.089,823.186 589.255,826.019 592.5,828C 606.887,828.769 617.72,835.269 625,847.5C 626.43,850.353 627.263,853.353 627.5,856.5 Z"/></g>
<g><path style="opacity:1" fill="#f7dab0" d="M 706.5,855.5 C 706.5,856.833 706.5,858.167 706.5,859.5C 689.833,859.5 673.167,859.5 656.5,859.5C 654.238,832.636 640.572,814.302 615.5,804.5C 614.51,780.241 614.177,755.908 614.5,731.5C 631.554,731.349 648.221,728.683 664.5,723.5C 664.333,755.168 664.5,786.835 665,818.5C 665.964,822.468 668.131,825.635 671.5,828C 684.896,828.785 695.396,834.618 703,845.5C 705.035,848.561 706.201,851.895 706.5,855.5 Z"/></g>
<g><path style="opacity:1" fill="#d2ba96" d="M 614.5,731.5 C 614.177,755.908 614.51,780.241 615.5,804.5C 614.168,792.686 613.501,780.519 613.5,768C 613.5,755.662 613.833,743.495 614.5,731.5 Z"/></g>
<g><path style="opacity:1" fill="#246c48" d="M 506.5,840.5 C 505.833,828.167 505.167,815.833 504.5,803.5C 504.783,802.711 505.283,802.044 506,801.5C 506.5,814.496 506.667,827.496 506.5,840.5 Z"/></g>
<g><path style="opacity:1" fill="#43c786" d="M 504.5,803.5 C 505.167,815.833 505.833,828.167 506.5,840.5C 508.134,851.759 512.467,861.759 519.5,870.5C 499.007,871.497 478.34,871.831 457.5,871.5C 458.221,864.533 458.721,857.533 459,850.5C 476.419,836.976 491.586,821.31 504.5,803.5 Z"/></g>
<g><path style="opacity:1" fill="#645847" d="M 627.5,856.5 C 628.434,857.568 628.768,858.901 628.5,860.5C 604.328,860.831 580.328,860.498 556.5,859.5C 580.167,859.5 603.833,859.5 627.5,859.5C 627.5,858.5 627.5,857.5 627.5,856.5 Z"/></g>
<g><path style="opacity:1" fill="#877760" d="M 706.5,855.5 C 707.451,856.919 707.784,858.585 707.5,860.5C 690.325,860.83 673.325,860.497 656.5,859.5C 673.167,859.5 689.833,859.5 706.5,859.5C 706.5,858.167 706.5,856.833 706.5,855.5 Z"/></g>
<g><path style="opacity:1" fill="#287851" d="M 519.5,870.5 C 520.289,870.783 520.956,871.283 521.5,872C 499.996,872.829 478.663,872.663 457.5,871.5C 478.34,871.831 499.007,871.497 519.5,870.5 Z"/></g>
</svg>
